svg/counter/People.svg

<svg width="200" height="147" viewBox="0 0 200 147" fill="none" xmlns="http://www.w3.org/2000/svg">
<path d="M176.453 66.0912C169.648 62.6889 156.888 62.6494 156.348 62.6494C154.73 62.6494 153.418 63.9611 153.418 65.5791C153.418 67.1971 154.73 68.5088 156.348 68.5088C159.64 68.5092 169.2 69.0162 173.833 71.3322C174.253 71.5428 174.7 71.642 175.14 71.642C176.215 71.642 177.25 71.0482 177.763 70.0221C178.487 68.5748 177.9 66.815 176.453 66.0912Z" fill="#332E2E"/>
<path d="M191.059 107.803L178.96 104.346C178.438 104.196 178.073 103.713 178.073 103.17V99.1309C179.057 98.4488 179.996 97.6855 180.874 96.8336C185.128 92.7055 187.47 87.1684 187.47 81.2418V75.6688L188.64 73.3293C189.924 70.7609 190.603 67.8856 190.603 65.0145V49.9168C190.603 48.2988 189.291 46.9871 187.673 46.9871H159.48C149.229 46.9871 140.888 55.3277 140.888 65.5793V65.7539C140.888 68.1414 141.453 70.5324 142.52 72.6676L144.021 75.6684V80.4535C144.021 88.0371 147.758 94.8414 153.418 98.9359L153.419 103.169C153.419 103.821 153.419 104.092 151 104.783L145.096 106.47L128.018 100.26C128.079 99.4539 127.807 98.6344 127.219 98.0168L121.762 92.2832V82.6582C122.339 82.1828 122.907 81.6945 123.459 81.1781C130.343 74.725 134.292 65.6141 134.292 56.1816V48.4949C136.371 43.9711 137.424 39.184 137.424 34.2539V2.92969C137.424 1.31172 136.113 0 134.495 0H90.6395C75.2059 0 62.65 12.5562 62.65 27.9895V34.2547C62.65 39.1848 63.7035 43.9719 65.7824 48.4957V55.1094C65.7824 66.0609 70.652 75.9274 78.3125 82.432V92.2836L72.8551 98.0172C72.2672 98.6348 71.9953 99.4543 72.0566 100.26L54.0313 106.814C52.725 107.289 51.5113 107.933 50.4094 108.712L47.5789 107.297C56.0047 103.629 58.6738 98.4711 58.802 98.2149C59.2145 97.3902 59.2145 96.4191 58.802 95.5945C56.6898 91.3703 56.434 83.6277 56.2285 77.4066C56.1602 75.3355 56.0953 73.3789 55.9715 71.6367C54.9727 57.5844 44.2898 46.9871 31.1219 46.9871C17.9539 46.9871 7.2707 57.584 6.27227 71.6367C6.14844 73.3793 6.08359 75.3359 6.01523 77.4074C5.80977 83.6281 5.55352 91.3699 3.4418 95.5941C3.0293 96.4187 3.0293 97.3898 3.4418 98.2145C3.56992 98.4707 6.23359 103.618 14.6762 107.29L6.81406 111.221C2.61094 113.324 0 117.549 0 122.248V143.892C0 145.51 1.31172 146.821 2.92969 146.821C4.54766 146.821 5.85938 145.51 5.85938 143.892V122.248C5.85938 119.782 7.2293 117.565 9.43437 116.463L19.2246 111.568L22.6301 114.804C25.0113 117.067 28.066 118.198 31.1219 118.198C34.177 118.198 37.2332 117.066 39.6137 114.804L43.0187 111.568L46.2109 113.164C44.7078 115.569 43.8547 118.389 43.8547 121.344V143.893C43.8547 145.511 45.1664 146.822 46.7844 146.822C48.4023 146.822 49.7141 145.511 49.7141 143.893V121.344C49.7141 117.322 52.2535 113.696 56.0336 112.321L75.0383 105.411L82.9496 117.279C83.9609 118.796 85.5816 119.769 87.3961 119.948C87.5984 119.968 87.7996 119.978 88.0004 119.978C89.6012 119.978 91.1344 119.348 92.2805 118.202L97.107 113.376V143.893C97.107 145.511 98.4187 146.823 100.037 146.823C101.655 146.823 102.966 145.511 102.966 143.893V113.376L107.793 118.202C108.939 119.348 110.472 119.979 112.073 119.979C112.273 119.979 112.475 119.969 112.677 119.949C114.492 119.769 116.113 118.796 117.124 117.279L125.036 105.412L144.04 112.322C147.82 113.697 150.359 117.323 150.359 121.345V143.893C150.359 145.511 151.671 146.823 153.289 146.823C154.907 146.823 156.219 145.511 156.219 143.893V121.345C156.219 117.271 154.6 113.451 151.886 110.625L152.609 110.419C153.339 110.21 154.336 109.925 155.336 109.434L162.816 116.914V143.893C162.816 145.511 164.127 146.823 165.745 146.823C167.363 146.823 168.675 145.511 168.675 143.893V116.914L176.103 109.486C176.498 109.687 176.913 109.857 177.35 109.981L189.45 113.438C192.211 114.227 194.141 116.785 194.141 119.657V143.893C194.141 145.511 195.452 146.823 197.07 146.823C198.688 146.823 200 145.511 200 143.893V119.657C200 114.182 196.323 109.307 191.059 107.803ZM18.7949 102.628C13.3148 100.656 10.566 98.0274 9.39258 96.5918C10.1926 94.5004 10.7113 92.1051 11.0625 89.5766C12.6781 93.4504 15.384 96.7574 18.7949 99.1168V102.628ZM35.5781 110.557C33.0793 112.931 29.1648 112.931 26.6668 110.557L23.9422 107.968C24.402 107.106 24.6547 106.13 24.6547 105.107V101.984C26.6984 102.623 28.8711 102.967 31.1227 102.967C33.3715 102.967 35.543 102.621 37.5902 101.986L37.5898 105.106C37.5898 106.13 37.8422 107.107 38.3023 107.968L35.5781 110.557ZM31.1234 97.1078C22.375 97.1078 15.2582 89.9906 15.2582 81.2426C15.2582 79.6246 13.9465 78.3129 12.3285 78.3129C12.1645 78.3129 12.0043 78.3297 11.8477 78.3559C11.8562 78.1039 11.8645 77.8516 11.873 77.602C11.9383 75.5875 12.0012 73.6848 12.1172 72.0527C12.4914 66.7887 14.5949 61.9379 18.0402 58.3934C21.5164 54.8168 26.1625 52.8473 31.1227 52.8473C36.0828 52.8473 40.7285 54.8168 44.2051 58.3934C47.6504 61.9379 49.7539 66.7887 50.1281 72.0527C50.2438 73.6844 50.307 75.5867 50.3734 77.6008C50.3793 77.7738 50.3852 77.9492 50.391 78.1234C47.2035 73.2125 42.2809 69.5934 35.9203 67.5496C30.0441 65.6617 24.9902 65.7785 24.777 65.784C24.0098 65.8055 23.2816 66.1266 22.7492 66.6789L17.4633 72.1609C16.3402 73.3258 16.3738 75.1805 17.5387 76.3035C18.7035 77.4266 20.5582 77.3926 21.6813 76.2281L26.0797 71.6668C29.8676 71.852 42.0539 73.2691 46.7934 83.7055C45.6008 91.3961 38.9906 97.1078 31.1234 97.1078ZM43.4488 102.638L43.4492 99.1438C46.8574 96.7973 49.5672 93.4965 51.184 89.5934C51.5352 92.116 52.0535 94.5059 52.852 96.5926C51.6852 98.0145 48.9234 100.667 43.4488 102.638ZM71.6418 55.109V47.8402C71.6418 47.3992 71.5422 46.9637 71.3504 46.5664C69.4652 42.6625 68.5094 38.5203 68.5094 34.2547V27.9898C68.5094 15.7871 78.4371 5.85977 90.6395 5.85977H131.565V34.2551C131.565 38.5207 130.609 42.6629 128.724 46.5668C128.532 46.9641 128.432 47.3996 128.432 47.8406V56.1824C128.432 64.1164 125.243 71.4754 119.452 76.9039C118.729 77.5813 117.978 78.2164 117.202 78.8082C117.185 78.8199 117.169 78.8328 117.152 78.8449C111.727 82.9641 105.081 84.966 98.1414 84.5164C83.2816 83.5543 71.6418 70.6371 71.6418 55.109ZM88.1375 114.059C88.1172 114.079 88.0699 114.127 87.9742 114.117C87.8789 114.107 87.8414 114.052 87.8254 114.027L78.7141 100.36L81.6461 97.2793L95.4684 106.727L88.1375 114.059ZM100.037 102.753L84.1719 91.9082V86.4395C88.277 88.6586 92.8734 90.0465 97.7621 90.3629C98.5344 90.4129 99.3019 90.4375 100.067 90.4375C105.669 90.4375 111.061 89.0984 115.902 86.5566V91.9082L100.037 102.753ZM112.249 114.028C112.233 114.052 112.195 114.108 112.1 114.118C112.004 114.13 111.957 114.079 111.937 114.059L104.606 106.729L118.428 97.2801L121.361 100.361L112.249 114.028ZM165.745 111.556L159.097 104.908C159.213 104.381 159.279 103.804 159.278 103.168L159.278 101.932C161.123 102.537 163.067 102.896 165.079 102.957C165.305 102.964 165.529 102.967 165.754 102.967C167.977 102.967 170.148 102.631 172.213 101.99V103.17C172.213 103.754 172.287 104.327 172.425 104.877L165.745 111.556ZM176.793 92.6289C173.688 95.6422 169.586 97.2336 165.255 97.1C156.777 96.8457 149.88 89.3781 149.88 80.4543V74.9773C149.88 74.5223 149.774 74.0738 149.571 73.6672L147.761 70.0477C147.098 68.7215 146.748 67.2371 146.748 65.7543V65.5797C146.748 58.5586 152.46 52.8469 159.48 52.8469H184.743V65.0148C184.743 66.9812 184.279 68.9504 183.399 70.7094L181.92 73.6672C181.717 74.0742 181.611 74.5223 181.611 74.9773V81.2422C181.611 85.5703 179.9 89.6141 176.793 92.6289Z" fill="#332E2E"/>
<path d="M184.54 122.168C182.922 122.168 181.61 123.48 181.61 125.098V143.893C181.61 145.511 182.922 146.822 184.54 146.822C186.158 146.822 187.47 145.511 187.47 143.893V125.098C187.47 123.48 186.158 122.168 184.54 122.168Z" fill="#332E2E"/>
<path d="M15.4597 126.039C13.8417 126.039 12.53 127.351 12.53 128.969V143.891C12.53 145.509 13.8417 146.821 15.4597 146.821C17.0777 146.821 18.3894 145.509 18.3894 143.891V128.969C18.3894 127.351 17.0777 126.039 15.4597 126.039Z" fill="#332E2E"/>
<path d="M124.036 35.3154C112.955 24.2349 89.7723 26.3533 80.3184 27.7783C77.3406 28.2271 75.1797 30.747 75.1797 33.7701V40.5193C75.1797 42.1373 76.4914 43.449 78.1094 43.449C79.7273 43.449 81.0391 42.1373 81.0391 40.5193V33.7697C81.0391 33.6701 81.1047 33.5849 81.1922 33.5716C84.9684 33.0025 92.4617 32.1244 100.225 32.642C109.361 33.2502 115.979 35.5435 119.893 39.4584C121.037 40.6025 122.892 40.6025 124.036 39.4584C125.18 38.3142 125.18 36.4591 124.036 35.3154Z" fill="#332E2E"/>
<path d="M65.5796 128.433C63.9616 128.433 62.6499 129.744 62.6499 131.362V143.892C62.6499 145.51 63.9616 146.822 65.5796 146.822C67.1976 146.822 68.5093 145.51 68.5093 143.892V131.362C68.5093 129.745 67.1976 128.433 65.5796 128.433Z" fill="#332E2E"/>
<path d="M134.495 128.433C132.877 128.433 131.565 129.744 131.565 131.362V143.892C131.565 145.51 132.877 146.822 134.495 146.822C136.113 146.822 137.424 145.51 137.424 143.892V131.362C137.424 129.745 136.113 128.433 134.495 128.433Z" fill="#332E2E"/>
</svg>

<svg width="200" height="147" fill="none" xmlns="http://www.w3.org/2000/svg"><path d="M176.45 66.1c-6.8-3.41-19.56-3.45-20.1-3.45a2.93 2.93 0 100 5.86c3.29 0 12.85.5 17.48 2.82a2.9 2.9 0 003.93-1.3c.73-1.46.14-3.22-1.3-3.94z" fill="#332E2E"/><path d="M191.06 107.8l-12.1-3.45a1.23 1.23 0 01-.89-1.18v-4.04a21.55 21.55 0 009.4-17.89v-5.57l1.17-2.34A18.69 18.69 0 00190.6 65v-15.1a2.93 2.93 0 00-2.93-2.92h-28.19a18.61 18.61 0 00-18.6 18.59v.17c0 2.4.57 4.78 1.64 6.92l1.5 3v4.78c0 7.59 3.74 14.4 9.4 18.49v4.23c0 .65 0 .92-2.42 1.61l-5.9 1.69-17.08-6.21c.06-.8-.21-1.63-.8-2.24l-5.46-5.74v-9.62a34.39 34.39 0 0012.53-26.48V48.5a33.86 33.86 0 003.13-14.24V2.93A2.93 2.93 0 00134.5 0H90.64a28.02 28.02 0 00-27.99 27.99v6.26c0 4.93 1.05 9.72 3.13 14.25v6.6a35.8 35.8 0 0012.53 27.33v9.85l-5.45 5.74a2.93 2.93 0 00-.8 2.24l-18.03 6.55c-1.3.48-2.52 1.12-3.62 1.9l-2.83-1.41c8.42-3.67 11.1-8.83 11.22-9.09.41-.82.41-1.8 0-2.62-2.11-4.22-2.37-11.96-2.57-18.18a158.4 158.4 0 00-.26-5.77c-1-14.06-11.68-24.65-24.85-24.65-13.17 0-23.85 10.6-24.85 24.65-.12 1.74-.19 3.7-.25 5.77-.21 6.22-.47 13.96-2.58 18.18-.41.83-.41 1.8 0 2.62.13.26 2.8 5.4 11.24 9.08l-7.87 3.93A12.26 12.26 0 000 122.25v21.64a2.93 2.93 0 005.86 0v-21.64a6.43 6.43 0 013.57-5.79l9.8-4.9 3.4 3.24a12.3 12.3 0 0016.98 0l3.4-3.23 3.2 1.6a15.43 15.43 0 00-2.36 8.17v22.55a2.93 2.93 0 005.86 0v-22.55a9.63 9.63 0 016.32-9.02l19-6.9 7.92 11.86a6.04 6.04 0 009.33.92l4.83-4.82v30.51a2.93 2.93 0 005.86 0v-30.51l4.82 4.82a6.04 6.04 0 009.33-.92l7.92-11.87 19 6.91a9.63 9.63 0 016.32 9.03v22.54a2.93 2.93 0 005.86 0v-22.54c0-4.08-1.62-7.9-4.33-10.72l.72-.21c.73-.21 1.73-.5 2.73-.99l7.48 7.48v26.98a2.93 2.93 0 105.86 0v-26.98l7.42-7.42c.4.2.81.37 1.25.5l12.1 3.45a6.5 6.5 0 014.7 6.22v24.23a2.93 2.93 0 105.85 0v-24.23c0-5.48-3.68-10.35-8.94-11.86zm-172.27-5.17c-5.48-1.97-8.22-4.6-9.4-6.04a32.3 32.3 0 001.67-7.01 21.85 21.85 0 007.73 9.54v3.5zm16.79 7.93a6.47 6.47 0 01-8.91 0l-2.73-2.6c.46-.85.71-1.83.71-2.85v-3.13a21.64 21.64 0 0012.94 0v3.13c0 1.02.25 2 .71 2.86l-2.72 2.59zM31.12 97.1a15.88 15.88 0 01-15.86-15.87 2.93 2.93 0 00-3.41-2.88l.02-.76c.07-2.01.13-3.92.25-5.55a21.75 21.75 0 015.92-13.66 18.1 18.1 0 0113.08-5.54c4.96 0 9.6 1.97 13.09 5.54a21.75 21.75 0 015.92 13.66 155.03 155.03 0 01.26 6.07c-3.19-4.9-8.1-8.53-14.47-10.57a36.77 36.77 0 00-11.14-1.77c-.77.03-1.5.35-2.03.9l-5.29 5.48a2.93 2.93 0 104.22 4.07l4.4-4.56c3.79.18 15.97 1.6 20.71 12.04C45.6 91.4 39 97.1 31.12 97.1zm12.33 5.53v-3.5a21.67 21.67 0 007.73-9.55c.36 2.53.87 4.92 1.67 7-1.16 1.42-3.93 4.08-9.4 6.05zm28.2-47.53v-7.27c0-.44-.1-.88-.3-1.27a28.1 28.1 0 01-2.84-12.32V28c0-12.2 9.93-22.13 22.13-22.13h40.92v28.4c0 4.26-.95 8.4-2.84 12.3-.19.4-.29.84-.29 1.28v8.34a28.13 28.13 0 01-11.23 22.63l-.05.03a28.17 28.17 0 01-19 5.68c-14.87-.97-26.5-13.88-26.5-29.41zm16.49 58.95c-.02.02-.07.07-.17.06a.19.19 0 01-.14-.1l-9.12-13.66 2.94-3.08 13.82 9.45-7.33 7.33zm11.9-11.3L84.17 91.9v-5.47a32.99 32.99 0 0015.9 4c5.6 0 11-1.34 15.83-3.88v5.35l-15.86 10.84zm12.2 11.27a.19.19 0 01-.14.09c-.1.01-.14-.04-.16-.06l-7.33-7.33 13.82-9.45 2.93 3.08-9.11 13.67zm53.5-2.47l-6.64-6.65a8 8 0 00.18-1.74v-1.24a20.59 20.59 0 006.47 1.04c2.23 0 4.4-.34 6.46-.98v1.18c0 .58.08 1.16.22 1.7l-6.69 6.69zm11.05-18.93c-3.1 3.01-7.2 4.6-11.53 4.47-8.48-.25-15.38-7.72-15.38-16.65v-5.47c0-.46-.1-.9-.3-1.31l-1.82-3.62a9.65 9.65 0 01-1.01-4.3v-.17c0-7.02 5.71-12.73 12.73-12.73h25.26V65c0 1.97-.46 3.94-1.34 5.7l-1.48 2.96c-.2.4-.3.85-.3 1.3v6.27c0 4.33-1.72 8.37-4.83 11.39z" fill="#332E2E"/><path d="M184.54 122.17a2.93 2.93 0 00-2.93 2.93v18.8a2.93 2.93 0 005.86 0v-18.8a2.93 2.93 0 00-2.93-2.93zM15.46 126.04a2.93 2.93 0 00-2.93 2.93v14.92a2.93 2.93 0 105.86 0v-14.92a2.93 2.93 0 00-2.93-2.93zM124.04 35.32c-11.09-11.09-34.27-8.97-43.72-7.54a6.01 6.01 0 00-5.14 5.99v6.75a2.93 2.93 0 005.86 0v-6.75c0-.1.06-.19.15-.2a92.56 92.56 0 0119.03-.93c9.14.61 15.76 2.9 19.67 6.82a2.93 2.93 0 104.15-4.14zM65.58 128.43a2.93 2.93 0 00-2.93 2.93v12.53a2.93 2.93 0 105.86 0v-12.53a2.93 2.93 0 00-2.93-2.93zM134.5 128.43a2.93 2.93 0 00-2.94 2.93v12.53a2.93 2.93 0 005.86 0v-12.53a2.93 2.93 0 00-2.92-2.93z" fill="#332E2E"/></svg>
